packages/core/src/svgs/breed.svg

<svg width="24" height="24" viewBox="0 0 24 24" fill="none" xmlns="http://www.w3.org/2000/svg">
<g clip-path="url(#clip0_31_7326)">
<path d="M0 0H24V24H0V0Z" fill="#181B1E"/>
<path d="M14.7771 8.14279H11.5714L10.7143 7.28564H14.7771C17.2629 7.28564 19.2857 9.53564 19.2857 11.9999C19.2857 14.4642 17.2671 16.7142 14.7771 16.7142H10.5L11.5714 15.8571H14.7771C16.7357 15.8571 18.4286 13.9371 18.4286 11.9999C18.4286 10.0628 16.7357 8.14279 14.7771 8.14279Z" fill="url(#paint0_linear_31_7326)"/>
<path d="M14.6829 10.2859H12.8572V9.42871H14.6829C15.0133 9.43595 15.339 9.50821 15.6415 9.64137C15.9439 9.77452 16.2172 9.96597 16.4456 10.2048C16.6741 10.4436 16.8532 10.725 16.9729 11.0331C17.0925 11.3411 17.1503 11.6698 17.1429 12.0001C17.1429 13.4187 16.0415 14.5716 14.6829 14.5716H12.8572V13.7144H14.6829C15.5572 13.7144 16.2857 12.913 16.2857 12.0001C16.2857 11.0873 15.5572 10.2859 14.6829 10.2859Z" fill="url(#paint1_linear_31_7326)"/>
<path d="M5.98711 7.76151C5.98711 7.50008 5.83282 7.2858 5.57139 7.2858C5.31425 7.2858 5.14282 7.50008 5.14282 7.76151V15.0472C5.14282 16.0501 5.95282 16.7144 6.94711 16.7144H10.92C11.4473 16.6653 11.9473 16.4573 12.3538 16.1178C12.7603 15.7783 13.054 15.3233 13.1962 14.8131C13.3384 14.303 13.3223 13.7616 13.15 13.2608C12.9777 12.76 12.6574 12.3234 12.2314 12.0087C12.5669 11.761 12.8379 11.4363 13.0214 11.0618C13.205 10.6873 13.2956 10.2741 13.2857 9.85723C13.2857 8.57151 12.3857 7.44865 11.1214 7.2858H8.39997C8.20016 7.28296 8.00176 7.31952 7.81609 7.39337C7.63041 7.46722 7.4611 7.57692 7.31783 7.71622C7.17456 7.85551 7.06013 8.02166 6.98108 8.20518C6.90203 8.3887 6.8599 8.58599 6.85711 8.7858C6.85711 9.6258 7.44854 10.2858 8.28425 10.2858H10.6714C10.9285 10.2858 11.1428 10.1187 11.1428 9.85723C11.1428 9.55723 10.9285 9.42865 10.6714 9.42865H8.28425C7.97139 9.42865 7.71425 9.10294 7.71425 8.7858C7.71425 8.46865 8.08282 8.14294 8.39997 8.14294H11.1428C11.9357 8.26723 12.4285 9.0558 12.4285 9.85723C12.4285 10.7315 11.6657 11.4601 10.8428 11.5715H8.36997C8.17073 11.5721 7.97356 11.6119 7.78971 11.6886C7.60585 11.7654 7.43892 11.8776 7.29844 12.0189C7.15795 12.1602 7.04668 12.3277 6.97095 12.512C6.89523 12.6963 6.85654 12.8937 6.85711 13.0929C6.85764 13.2899 6.89738 13.4847 6.97403 13.6661C7.05067 13.8475 7.16268 14.0118 7.30351 14.1494C7.44434 14.2871 7.61117 14.3953 7.79428 14.4678C7.97738 14.5402 8.17308 14.5755 8.36997 14.5715H10.6714C10.9285 14.5715 11.1428 14.4001 11.1428 14.1429C11.1428 13.8772 10.9285 13.7144 10.6714 13.7144H8.28425C7.97139 13.7144 7.71425 13.3887 7.71425 13.0715C7.71425 12.7544 7.97139 12.4287 8.28425 12.4287C9.05568 12.4287 10.0971 12.4372 10.8728 12.4287H11.0314C11.8243 12.5529 12.4285 13.3415 12.4285 14.1429C12.4285 15.0172 11.6657 15.7458 10.8428 15.8572H6.84854C6.37711 15.8572 5.99139 15.4715 5.99139 14.9915V7.75723L5.98711 7.76151Z" fill="url(#paint2_linear_31_7326)"/>
<path d="M14.5715 11.9999C14.5715 12.1135 14.5263 12.2225 14.446 12.3029C14.3656 12.3833 14.2566 12.4284 14.1429 12.4284C14.0293 12.4284 13.9203 12.3833 13.8399 12.3029C13.7595 12.2225 13.7144 12.1135 13.7144 11.9999C13.7144 11.8862 13.7595 11.7772 13.8399 11.6968C13.9203 11.6164 14.0293 11.5713 14.1429 11.5713C14.2566 11.5713 14.3656 11.6164 14.446 11.6968C14.5263 11.7772 14.5715 11.8862 14.5715 11.9999Z" fill="url(#paint3_linear_31_7326)"/>
</g>
<defs>
<linearGradient id="paint0_linear_31_7326" x1="15" y1="7.28564" x2="15" y2="16.7142" gradientUnits="userSpaceOnUse">
<stop stop-color="#0AE0BE"/>
<stop offset="0.55" stop-color="#7C75DC"/>
<stop offset="1" stop-color="#E90DF5"/>
</linearGradient>
<linearGradient id="paint1_linear_31_7326" x1="12.4672" y1="12.0001" x2="16.6886" y2="12.0001" gradientUnits="userSpaceOnUse">
<stop stop-color="#0AE0BE"/>
<stop offset="0.55" stop-color="#7C75DC"/>
<stop offset="1" stop-color="#E90DF5"/>
</linearGradient>
<linearGradient id="paint2_linear_31_7326" x1="12.4243" y1="7.87294" x2="5.39139" y2="16.3329" gradientUnits="userSpaceOnUse">
<stop stop-color="#EC0AF8"/>
<stop offset="0.31" stop-color="#9360E8"/>
<stop offset="0.67" stop-color="#6589D9"/>
<stop offset="1" stop-color="#10DDBC"/>
</linearGradient>
<linearGradient id="paint3_linear_31_7326" x1="13.6286" y1="11.9999" x2="14.5672" y2="11.9999" gradientUnits="userSpaceOnUse">
<stop stop-color="#0AE0BE"/>
<stop offset="0.55" stop-color="#7C75DC"/>
<stop offset="1" stop-color="#E90DF5"/>
</linearGradient>
<clipPath id="clip0_31_7326">
<rect width="24" height="24" fill="white"/>
</clipPath>
</defs>
</svg>

<svg xmlns="http://www.w3.org/2000/svg" width="24" height="24" fill="none" viewBox="0 0 24 24"><g clip-path="url(#a)"><path fill="#181B1E" d="M0 0h24v24H0z"/><path fill="url(#b)" d="M14.777 8.143h-3.206l-.857-.857h4.063c2.486 0 4.509 2.25 4.509 4.714s-2.019 4.714-4.509 4.714H10.5l1.071-.857h3.206c1.959 0 3.652-1.92 3.652-3.857s-1.693-3.857-3.652-3.857"/><path fill="url(#c)" d="M14.683 10.286h-1.826v-.857h1.826A2.516 2.516 0 0 1 17.143 12c0 1.419-1.102 2.572-2.46 2.572h-1.826v-.858h1.826c.874 0 1.603-.801 1.603-1.714s-.729-1.714-1.603-1.714"/><path fill="url(#d)" d="M5.987 7.762c0-.262-.154-.476-.416-.476-.257 0-.428.214-.428.476v7.285c0 1.003.81 1.667 1.804 1.667h3.973a2.615 2.615 0 0 0 1.311-4.705 2.6 2.6 0 0 0 1.055-2.152c0-1.285-.9-2.408-2.165-2.571H8.4a1.52 1.52 0 0 0-1.543 1.5c0 .84.592 1.5 1.427 1.5h2.387c.258 0 .472-.167.472-.429 0-.3-.215-.428-.472-.428H8.284c-.313 0-.57-.326-.57-.643s.369-.643.686-.643h2.743c.793.124 1.285.913 1.285 1.714 0 .875-.762 1.603-1.585 1.715H8.37a1.52 1.52 0 0 0-1.513 1.52 1.483 1.483 0 0 0 1.513 1.48h2.301c.258 0 .472-.172.472-.43 0-.265-.215-.428-.472-.428H8.284c-.313 0-.57-.325-.57-.643 0-.317.257-.642.57-.642.772 0 1.813.008 2.589 0h.158c.793.124 1.397.912 1.397 1.714 0 .874-.762 1.603-1.585 1.714H6.849a.86.86 0 0 1-.858-.865V7.757z"/><path fill="url(#e)" d="M14.572 12a.429.429 0 1 1-.858 0 .429.429 0 0 1 .857 0"/></g><defs><linearGradient id="b" x1="15" x2="15" y1="7.286" y2="16.714" gradientUnits="userSpaceOnUse"><stop stop-color="#0AE0BE"/><stop offset=".55" stop-color="#7C75DC"/><stop offset="1" stop-color="#E90DF5"/></linearGradient><linearGradient id="c" x1="12.467" x2="16.689" y1="12" y2="12" gradientUnits="userSpaceOnUse"><stop stop-color="#0AE0BE"/><stop offset=".55" stop-color="#7C75DC"/><stop offset="1" stop-color="#E90DF5"/></linearGradient><linearGradient id="d" x1="12.424" x2="5.391" y1="7.873" y2="16.333" gradientUnits="userSpaceOnUse"><stop stop-color="#EC0AF8"/><stop offset=".31" stop-color="#9360E8"/><stop offset=".67" stop-color="#6589D9"/><stop offset="1" stop-color="#10DDBC"/></linearGradient><linearGradient id="e" x1="13.629" x2="14.567" y1="12" y2="12" gradientUnits="userSpaceOnUse"><stop stop-color="#0AE0BE"/><stop offset=".55" stop-color="#7C75DC"/><stop offset="1" stop-color="#E90DF5"/></linearGradient><clipPath id="a"><path fill="#fff" d="M0 0h24v24H0z"/></clipPath></defs></svg>
